images/headTopImage.svg

<svg height="98" viewBox="0 0 102 98" width="102" xmlns="http://www.w3.org/2000/svg" xmlns:xlink="http://www.w3.org/1999/xlink"><mask id="a" fill="#fff"><path d="m0 .11930292h101.878509v96.62906858h-101.878509z" fill="none"/></mask><g fill="none" fill-rule="evenodd" transform=""><path d="m101 50c0 26.5094613-22.3857651 48-50 48s-50-21.4905387-50-48 22.3857651-48 50-48 50 21.4905387 50 48" fill="#fff"/><path d="m87.0427625 14.495588c-19.8506875-19.10722997-52.1046458-19.17803289-72.0413958-.1547044-19.93852087 19.0183722-20.0093542 49.9266788-.1664584 69.0385109 7.3124792 7.0371022 16.309375 11.4863577 25.7496875 13.3573248.3584167.071511.6945209-.195416.6941667-.5462445l-.0152292-58.4449781c-.0003541-.4485365-.527-.7122774-.911625-.4559708l-14.2828333 9.5722007c-.384625.2577227-.9112708-.0060182-.9112708-.4559708l-.0053125-19.5532883c0-.1816095.0931458-.3525985.2503958-.4563248l25.19825-16.66913139c.1983333-.12956934.4593542-.12956934.6576875 0l25.2028542 16.65567879c.1568958.1037263.2503958.2747154.2503958.4559708l.0049583 19.5536424c0 .4499525-.5262916.7140474-.9109166.4563248l-14.2835417-9.5647664c-.3849792-.2563066-.9126875.0077883-.9126875.4563248l.0155833 58.4449781c0 .3508285.3375209.6177555.6959375.5458905 9.3567292-1.8575146 18.2781875-6.2518978 25.5517084-13.1966022 19.9385203-19.0201423 20.0189163-49.9284489.1696458-69.0388649" fill="#5cd8ff" mask="url(#a)"/></g></svg>

<?xml version="1.0" encoding="UTF-8"?>
<svg width="102px" height="98px" viewBox="0 0 102 98" version="1.1" xmlns="http://www.w3.org/2000/svg" xmlns:xlink="http://www.w3.org/1999/xlink">
    <!-- Generator: Sketch 50.2 (55047) - http://www.bohemiancoding.com/sketch -->
    <title>arrow icon</title>
    <desc>Created with Sketch.</desc>
    <defs>
        <polygon id="path-1" points="0 0.11930292 101.878509 0.11930292 101.878509 96.7483715 0 96.7483715"></polygon>
    </defs>
    <g id="Future-Project-Desktop" stroke="none" stroke-width="1" fill="none" fill-rule="evenodd">
        <g id="Homepage--update" transform="translate(-660.000000, -5480.000000)">
            <g id="homepage/what-we-stand-for" transform="translate(53.000000, 5480.000000)">
                <g id="arrow-icon" transform="translate(607.000000, 0.000000)">
                    <path d="M101,50 C101,76.5094613 78.6142349,98 51,98 C23.3857651,98 1,76.5094613 1,50 C1,23.4905387 23.3857651,2 51,2 C78.6142349,2 101,23.4905387 101,50" id="Fill-1" fill="#FFFFFF"></path>
                    <g id="Group-5">
                        <mask id="mask-2" fill="white">
                            <use xlink:href="#path-1"></use>
                        </mask>
                        <g id="Clip-4"></g>
                        <path d="M87.0427625,14.495588 C67.192075,-4.61164197 34.9381167,-4.68244489 15.0013667,14.3408836 C-4.93715417,33.3592558 -5.0079875,64.2675624 14.8349083,83.3793945 C22.1473875,90.4164967 31.1442833,94.8657522 40.5845958,96.7367193 C40.9430125,96.8082303 41.2791167,96.5413033 41.2787625,96.1904748 L41.2635333,37.7454967 C41.2631792,37.2969602 40.7365333,37.0332193 40.3519083,37.2895259 L26.069075,46.8617266 C25.68445,47.1194493 25.1578042,46.8557084 25.1578042,46.4057558 L25.1524917,26.8524675 C25.1524917,26.670858 25.2456375,26.499869 25.4028875,26.3961427 L50.6011375,9.72701131 C50.7994708,9.59744197 51.0604917,9.59744197 51.258825,9.72701131 L76.4616792,26.3826901 C76.618575,26.4864164 76.712075,26.6574055 76.712075,26.8386609 L76.7170333,46.3923033 C76.7170333,46.8422558 76.1907417,47.1063507 75.8061167,46.8486281 L61.522575,37.2838617 C61.1375958,37.0275551 60.6098875,37.29165 60.6098875,37.7401865 L60.6254708,96.1851646 C60.6254708,96.5359931 60.9629917,96.8029201 61.3214083,96.7310551 C70.6781375,94.8735405 79.5995958,90.4791573 86.8731167,83.5344529 C106.811637,64.5143106 106.892033,33.606004 87.0427625,14.495588" id="Fill-3" fill="#5CD8FF" mask="url(#mask-2)"></path>
                    </g>
                </g>
            </g>
        </g>
    </g>
</svg>
